X:1
T:Compt al uyt zuyden, uyt oosten
T:Geert van Turnhout
T:Compt al uyt zuyden, uyt oosten
C:Geert van Turnhout
%%score [ 1 2 3 4 ]
L:1/8
Q:1/4=104
M:2/2
K:Eb
V:1 treble nm="Soprano" snm="S"
V:2 treble nm="Alto" snm="A"
V:3 treble-8 nm="Tenor" snm="T"
V:4 bass nm="Bass" snm="B"
V:1
 F4 F2 A2 | G2 FF A3 B | c8- | c4 z4 | z2 cc e3 d | c2 B2 A2 G2- | G2 F4 =E2 | F2 F2 F2 A2 | %8
w: Compt al uyt|zuy- den, uyt oos- *|ten|_|die met son- den|sijt _ _ be-|* la- *|den, ick sal u|
 G2 F2 A3 B | c8- | c4 z4 | z2 c2 e3 d | c2 B2 A2 G2- | G2 F4 =E2 | F4 z4 | z2 c2 c2 ff | %16
w: selfs ver- troos- *|ten,|_|met mijn bloet|sal ick u ver-|* sa- *|den,|ick ben die fon-|
 e3 d c2 d2- | d2 c4 B2 | c4 z2 c2 | c2 ff e2 d2- | d2 c4 =B2 | c4 z4 | z8 | z2 f2 e3 d | %24
w: teyn _ _ ver-|* he- *|ven, ick|ben die fon- teyn ver-|* he- *|ven,||die dorst, _|
 c2 B2 A2 G2- | G2 F4 =E2 | F2 F2 A2 B2 | c4 z2 F2 | A3 B cd e2- | ed c4 =B2 | c2 c2 e3 d | %31
w: _ die co- *|* * me|naer, die daer uyt|drinckt sal|ee- wich le- * *||ven, sprect Chris- *|
 c2 B2 A2 G2- | G2 F4 =E2 | F2 F2 A2 B2 | c4 z2 F2 | A3 B cd e2- | ed c4 =B2 | c2 c2 e3 d | %38
w: tus int o- *|* * pen-|baer, die daer uyt|drinckt sal|ee- wich le- * *||ven, sprect Chris- *|
 c2 B2 A2 G2- | G2 F4 =E2 | F8 |] %41
w: tus int o- *|* * pen-|baer.|
V:2
 z2 F2 F2 F2 | E2 FE _D4 | C8 | z4 z2 FF | A2 G2 E3 F | G3 FED E2 | C2 B,2 C4 | z2 F2 F2 F2 | %8
w: Compt al uyt|zuy- den, uyt oos-|ten|die met|son- den sijt be-|la- * * * *|* * den,|ick sal u|
 E2 F2 _D4 | C8 | z4 z2 F2 | A2 G2 E3 F | G3 FED E2 | C2 B,2 C3 B, | A,G, A,4 B,2 | C3 D E2 D2 | %16
w: selfs ver- troos-|ten,|met|mijn bloet sal ick|u _ _ _ ver-|sa- * * *|||
 C2 C2 C2 FF | E2 DC D4 | C3 B, A,2 G,2 | F,4 G,4 | z4 z2 G2- | GF E2 D2 C2 | B,2 A,4 G,2 | %23
w: den, ick ben die fon-|teyn _ ver- he-||* ven,|die|_ _ _ dorst, die|co- * *|
 F,4 G,4 | z2 E2 E3 D | C8 | z2 F2 F2 B,2 | F4 z4 | z2 F2 A2 G2- | G2 A2 G2 G2- | G2 G2 E3 F | %31
w: me naer,|die co- me|naer,|die daer uyt|drinckt|sal ee- wich|_ le- * ven,|_ sprect Chris- *|
 G3 F ED E2 | C2 B,2 C4 | z2 F2 F2 B,2 | F4 z4 | z2 F2 A2 G2- | G2 A2 G2 G2- | G2 G2 E3 F | %38
w: tus int o- * *|* pen- baer,|die daer uyt|drinckt|sal ee- wich|_ le- * ven,|_ sprect Chris- *|
 G3 F ED E2 | C2 B,2 C4- | C8 |] %41
w: tus int o- * *|* pen- baer.|_|
V:3
 z8 | z8 | F4 F2 A2 | G2 FF A3 B | c4 z2 cc | e3 d c2 B2 | A2 GF G4 | F3 G A4 | z8 | z2 F2 F2 A2 | %10
w: ||Compt al uyt|zuy- den, uyt oos- *|ten die met|son- den sijt be-|la- * * *|* * den,||ick sal u|
 G2 F2 A3 B | c4 z2 c2 | e3 d c2 B2 | A2 GF G4 | F2 c2 c2 ff | e3 d c2 B2 | c4 F4 | z8 | %18
w: selfs ver- troos- *|ten, met|mijn bloet sal ick|u ver- * sa-|den, ick ben die fon-|teyn _ _ ver-|he- ven,||
 z2 FGAB c2- | c2 =B2 c2 d2 | e4 d4 | c4 f4 | e2 d4 c2- | c2 =B2 c2 c2 | e3 d c2 B2 | A4 G4 | %26
w: die _ _ _ dorst,|_ _ _ die|co- *|||* me naer, die|co- * * *|* me|
 F4 z4 | z2 F2 A2 B2 | c4 z2 c2 | g2 fe d4 | c4 z2 c2 | e3 d c2 B2 | A2 GF G4 | F4 z4 | %34
w: _|die daer uyt|drinckt sal|ee- wich _ le-|ven, sprect|Chris- * tus int|o- * * pen-|baer,|
 z2 F2 A2 B2 | c4 z2 c2 | g2 fe d4 | c4 z2 c2 | e3 d c2 B2 | A2 GF G2 G2 | F8 |] %41
w: die daer uyt|drinckt sal|ee- wich _ le-|ven, sprect|Chris- * tus int|o- * * * pen-|baer.|
V:4
 z8 | z8 | z2 F,2 F,2 F,2 | E,2 F,E, _D,4 | C,8 | z2 G,G, A,2 E,2 | F,2 _D,2 C,4 | _D,2 B,,2 F,4 | %8
w: ||Compt al uyt|zuy- den, uyt oos-|ten|die met son- den|sijt be- la-|* * den,|
 z8 | z2 F,2 F,2 F,2 | E,2 F,2 _D,4 | C,8 | z2 G,2 A,2 E,2 | F,2 _D,2 C,2 C,2 | F,3 E, F,2 _D,2 | %15
w: |ick sal u|selfs ver- troos-|ten,|met mijn bloet|sal ick u ver-|sa- * * *|
 C,4 z4 | z8 | z2 F,2 F,2 B,B, | A,3 G, F,2 E,2 | F,2 D,2 C,2 G,2 | E,2 C,2 G,4 | z2 C2 B,2 A,2 | %22
w: den,||ick ben die fon-|teyn _ _ ver-|he- * * *|* * ven,|die dorst, die|
 G,2 F,4 E,2 | D,4 C,4- | C,8- | C,8 | F,4 z4 | z2 F,2 F,2 B,,2 | F,4 z2 C,2 | E,2 F,2 G,4 | C,8 | %31
w: co- * *|me naer,|_|||die daer uyt|drinckt sal|ee- wich le-|ven,|
 z2 G,2 A,2 E,E, | F,2 _D,2 C,4 | F,4 z4 | z2 F,2 F,2 B,,2 | F,4 z2 C,2 | E,2 F,2 G,4 | C,8 | %38
w: sprect Chris- tus int|o- * pen-|baer,|die daer uyt|drinckt sal|ee- wich le-|ven,|
 z2 G,2 A,2 E,E, | F,2 _D,2 C,4 | F,8 |] %41
w: sprect Chris- tus int|o- * pen-|baer.|

